src/resources/how-to--2.svg

<svg width="120" height="147" viewBox="0 0 120 147" fill="none" xmlns="http://www.w3.org/2000/svg">
<path d="M41.3576 146.346C41.8147 146.346 42.1664 144.385 40.3941 144.343C39.9862 144.336 38.5797 142.989 37.996 142.305C37.5318 141.776 33.4529 141.092 33.4177 142.785C33.3966 143.849 33.0872 146.332 33.7694 146.339C35.4361 146.339 39.2126 146.346 41.3576 146.346Z" fill="#4D909E"/>
<path d="M27.3699 71.4878C26.315 70.8178 25.246 70.1126 24.1982 69.4145C23.1503 68.7092 22.1095 67.9899 21.0897 67.2636C20.07 66.5301 19.0643 65.7897 18.1079 65.028C17.7 64.7107 17.3202 64.3863 16.9335 64.0619C16.9686 63.9773 17.0038 63.8997 17.0389 63.8151C17.3343 63.1451 17.6648 62.4399 18.0165 61.7417C18.7197 60.3313 19.4793 58.9068 20.2529 57.4964C21.0265 56.0789 21.8211 54.6614 22.6369 53.251C23.4457 51.8406 24.2685 50.4301 25.0913 49.0479C25.1406 48.9633 25.1757 48.8998 25.2179 48.8223C26.1462 46.9887 25.4219 44.7391 23.6004 43.8082C21.7719 42.8773 19.5285 43.5966 18.6002 45.4372C17.8336 46.9393 17.1022 48.4132 16.3708 49.9153C15.6394 51.4104 14.9221 52.9125 14.2188 54.4357C13.5156 55.959 12.8264 57.4893 12.1653 59.069C11.8348 59.8588 11.5113 60.6698 11.2018 61.5302C11.0471 61.9674 10.8994 62.4117 10.7518 62.9194C10.6814 63.1804 10.6111 63.4413 10.5408 63.7869C10.5056 63.9632 10.4775 64.1395 10.4493 64.3933C10.4282 64.612 10.4001 64.9575 10.4564 65.4441L10.4915 65.705C10.5759 66.3468 10.9135 66.9462 11.4761 67.3552L12.3763 68.0111L13.2624 68.5964C13.8532 68.9631 14.4369 69.3228 15.0206 69.6542C16.188 70.3242 17.3484 70.9448 18.5158 71.5442C19.6832 72.1436 20.8577 72.7148 22.0321 73.272C23.2136 73.8291 24.381 74.3721 25.5906 74.9081C26.4416 75.2818 27.4684 74.9927 27.9888 74.1746C28.5514 73.2508 28.2842 72.0661 27.3699 71.4878Z" fill="#FCAD95"/>
<path d="M24.5425 43.1943C22.7352 41.6076 18.4804 43.1802 15.7658 48.3565C14.0639 51.6075 11.7291 56.2478 11.7291 56.2478C11.1172 57.9333 17.6646 63.2012 20.6746 60.9163C20.6746 60.9163 22.8617 55.8952 24.6973 52.2563C25.8999 49.8656 27.8198 46.0646 24.5425 43.1943Z" fill="#DD6441"/>
<path d="M90.4661 54.0406C79.1716 54.0406 69.5017 47.6302 65.8166 37.7149C60.8797 24.3935 68.5453 9.20319 82.906 3.84358C86.2676 2.5883 89.7487 1.95361 93.2651 1.95361C104.559 1.95361 114.236 8.36399 117.915 18.2793C122.851 31.6007 115.186 46.791 100.825 52.1506C97.4636 53.4059 93.9824 54.0406 90.4661 54.0406ZM93.2651 5.29632C90.1426 5.29632 87.0482 5.86049 84.0664 6.97472C71.4287 11.6926 64.6422 24.9576 68.9391 36.5584C72.1319 45.1549 80.5782 50.712 90.4661 50.712C93.5886 50.712 96.6829 50.1478 99.6648 49.0336C112.309 44.3157 119.096 31.0507 114.792 19.4499C111.606 10.8463 103.153 5.29632 93.2651 5.29632Z" fill="#2B6D87"/>
<path opacity="0.3" d="M82.7583 3.4487C69.2345 8.49097 62.019 22.6939 66.6535 35.1762C71.281 47.6514 86.0003 53.6739 99.5241 48.6316C113.048 43.5894 120.263 29.3864 115.629 16.9042C110.994 4.42895 96.2821 -1.60062 82.7583 3.4487Z" fill="#BECAD3"/>
<path d="M65.0857 35.7544C70.0296 49.0688 85.7335 55.5497 100.094 50.1901C114.455 44.8376 122.12 29.6403 117.184 16.3188C112.247 2.99734 96.5357 -3.47651 82.175 1.8831C67.8143 7.23566 60.1487 22.433 65.0857 35.7544ZM114.061 17.4824C118.365 29.0761 111.579 42.3482 98.9338 47.066C86.2891 51.7839 72.5051 46.1845 68.2082 34.5908C63.9042 22.9901 70.6907 9.72506 83.3354 5.00719C95.9801 0.289322 109.764 5.88871 114.061 17.4824Z" fill="#37A0AB"/>
<path d="M89.3484 17.8914C88.7154 15.1622 88.1036 12.4189 87.5129 9.64746C85.1569 10.1411 82.9135 10.8816 80.8037 11.8407C81.3593 14.5981 81.9149 17.3554 82.4775 20.1128C84.6365 19.1326 86.9362 18.385 89.3484 17.8914Z" fill="white"/>
<path d="M106.95 16.4106C106.521 14.2879 106.092 12.1722 105.67 10.0707C101.69 9.03404 97.3366 8.64617 92.8428 8.99878C93.2718 11.1003 93.6937 13.2159 94.1227 15.3386C98.6166 14.986 102.963 15.3739 106.95 16.4106Z" fill="white"/>
<path d="M8.72622 75.4013C6.65862 76.4943 4.25345 76.0007 3.3603 74.2941C2.46012 72.5875 3.41656 70.3237 5.48416 69.2307L65.0437 37.757C67.1113 36.664 67.9341 37.623 68.8273 39.3226C69.7204 41.0222 70.3463 42.8275 68.2787 43.9206L8.72622 75.4013Z" fill="#37A0AB"/>
<path d="M8.1496 77.5806C5.61081 78.9205 2.50941 78.0178 1.22244 75.5707L1.10288 75.3521C-0.184095 72.8909 0.828607 69.8162 3.36739 68.4763L37.4758 50.451C40.0145 49.1111 43.1159 50.0138 44.4029 52.4609L44.5225 52.6866C45.8094 55.1337 44.7967 58.2154 42.258 59.5483L8.1496 77.5806Z" fill="#2B6D87"/>
<path d="M14.0218 145.951C14.4157 146.176 15.6745 144.632 14.1484 143.736C13.7968 143.525 13.2201 141.663 13.0373 140.782C12.8896 140.09 9.64753 137.509 8.80361 138.976C8.26913 139.9 6.79931 141.924 7.39005 142.248C8.85284 143.074 12.1512 144.914 14.0218 145.951Z" fill="#4D909E"/>
<path d="M34.4097 90.3733C34.4097 90.3733 30.1198 111.353 27.4755 118.173C26.2097 121.438 19.7537 117.538 19.8662 115.218C20.4007 104.125 20.9352 93.9276 20.7312 86.1279C21.329 85.5355 34.4097 90.3733 34.4097 90.3733Z" fill="#213C53"/>
<path d="M19.9784 112.517C21.1247 108.032 28.7973 113.412 27.4822 118.173C25.8577 124.019 18.1429 134.914 14.4296 141.198C14.0358 141.868 7.64312 139.512 8.5433 137.58C11.0751 132.192 17.5803 121.889 19.9784 112.517Z" fill="#213C53"/>
<path d="M20.4497 88.2225C21.9828 90.3734 30.5275 94.2873 40.8795 89.7669L40.0497 78.2014L20.3864 78.5117C20.3864 78.5117 20.1332 84.5624 20.4497 88.2225Z" fill="#214F64"/>
<path d="M32.5667 41.7909C38.228 42.2423 44.0018 45.1125 43.7134 48.7514C43.5728 50.5567 42.3491 53.8007 41.6388 63.1165C40.7879 74.1884 42.757 78.5607 40.5066 79.8583C35.9846 82.4535 19.5492 82.2207 18.9304 78.9344C18.2763 75.4436 18.7335 47.1717 19.0007 44.7951C19.3875 41.5018 26.9054 41.3396 32.5667 41.7909Z" fill="#F88950"/>
<path d="M59.1569 46.2691C58.1301 48.0674 54.9373 57.4256 54.0723 57.1929C52.0821 56.5229 50.7037 55.1901 49.1635 53.8078C47.5741 52.3763 45.5909 49.3015 43.446 48.554C38.9591 46.9814 37.433 52.5173 40.1336 55.2535C43.7554 58.9277 49.3534 65.2534 54.8811 63.434C60.0993 61.7203 61.2175 49.5484 61.7519 46.7064C62.2302 44.2381 59.5648 45.2395 59.1569 46.2691Z" fill="#FCAD95"/>
<path d="M42.0962 44.8801C45.1203 46.9534 49.2906 51.1636 54.1291 55.55C55.3106 57.8208 52.2725 64.217 48.7913 63.7798C44.7616 61.5795 38.4533 56.0084 38.4533 56.0084C30.2392 49.6615 37.0679 41.4316 42.0962 44.8801Z" fill="#F88950"/>
<path d="M27.9468 41.84L32.8978 42.0445L32.94 35.5777L28.3406 35.3591L27.9468 41.84Z" fill="#FFA58F"/>
<path d="M35.8865 30.6909C35.8865 30.6909 36.0061 33.8009 35.9076 35.2466C35.7529 37.4751 35.1551 39.633 33.4603 39.6542C31.3505 39.6824 30.3167 37.3622 30.4292 35.1479L30.4222 30.7121L35.8865 30.6909Z" fill="#FFAE99"/>
<path d="M27.18 36.2057C26.9268 35.4017 26.8495 33.3143 26.4908 32.3693C26.1321 31.4244 24.156 27.1085 29.0366 26.2622C29.8805 26.1141 36.6178 24.7813 36.9413 28.3919C37.2297 31.5866 36.4561 31.2481 35.5067 31.6007C34.9089 31.8263 35.0073 32.6303 33.2703 32.7431C32.3631 32.8066 31.6317 32.4822 31.3293 33.5329C30.9636 34.7882 31.0902 36.2762 30.6893 36.9744C30.2392 37.7501 27.9184 38.5964 27.18 36.2057Z" fill="#213C53"/>
<path d="M31.9059 34.0969C32.2083 34.7528 32.0325 35.4862 31.5121 35.726C30.9917 35.9657 30.3236 35.6272 30.0212 34.9643C29.7118 34.3014 29.8946 33.5751 30.415 33.3353C30.9425 33.0955 31.6106 33.434 31.9059 34.0969Z" fill="#FFAE99"/>
<path d="M24.7605 90.0205C30.9211 96.2828 32.7566 107.171 34.5148 114.491C35.3376 117.94 43.4251 118.039 43.4392 113.469C43.4744 102.228 41.6037 92.8766 40.598 85.7681C40.591 85.7681 21.8771 87.0939 24.7605 90.0205Z" fill="#214F64"/>
<path d="M43.4111 113.201C43.0947 106.621 33.5373 109.005 34.4164 113.864C35.4994 119.872 33.2279 134.413 32.8903 141.719C32.8551 142.53 39.0439 143.807 39.3463 141.719C39.9511 137.559 43.6573 118.314 43.4111 113.201Z" fill="#214F64"/>
<path d="M34.5784 42.0517C33.9103 41.9318 33.2422 41.8402 32.567 41.7908C30.6401 41.6357 28.5092 41.5581 26.5049 41.6427C27.0253 42.355 28.1646 43.3987 30.4361 43.3987C32.6233 43.3987 33.9173 42.6229 34.5784 42.0517Z" fill="#FFA58F"/>
<path d="M30.4288 43.6809C28.1291 43.6809 26.9055 42.6654 26.2866 41.8121C26.1952 41.6851 26.2233 41.5159 26.3499 41.4242C26.4765 41.3325 26.6453 41.3607 26.7367 41.4877C27.2782 42.2352 28.3612 43.1308 30.4288 43.1308C32.4824 43.1308 33.7201 42.4326 34.4023 41.8544C34.5218 41.7556 34.6976 41.7697 34.7961 41.8826C34.8946 42.0025 34.8805 42.1788 34.768 42.2775C34.0084 42.9122 32.6511 43.6738 30.4288 43.6809Z" fill="#DD6441"/>
<path d="M58.4471 43.3565C58.5455 42.1576 58.9534 41.4877 59.0027 41.4736C59.4809 41.3184 59.2136 43.3142 59.72 43.2577C60.4866 43.1731 60.8382 39.5483 61.2953 39.499C61.5133 39.4778 61.4571 41.7486 61.4571 41.7486C61.4571 41.7486 62.1392 39.365 62.512 39.4214C63.2785 39.5413 62.7862 42.2493 62.7862 42.2493C62.7862 42.2493 63.4403 40.4792 63.5247 40.9517C63.82 42.5525 62.8355 46.537 61.1054 46.6639C58.5526 46.8473 58.3486 44.5553 58.4471 43.3565Z" fill="#FCAD95"/>
</svg>

<svg width="120" height="147" fill="none" xmlns="http://www.w3.org/2000/svg"><path d="M41.358 146.346c.457 0 .808-1.961-.964-2.003-.408-.007-1.814-1.354-2.398-2.038-.464-.529-4.543-1.213-4.578.48-.021 1.064-.33 3.547.351 3.554 1.667 0 5.444.007 7.589.007z" fill="#4D909E"/><path d="M27.37 71.488a143.22 143.22 0 0 1-6.28-4.224 76.488 76.488 0 0 1-2.982-2.236c-.408-.317-.788-.642-1.175-.966l.106-.247c.295-.67.626-1.375.977-2.073.704-1.41 1.463-2.835 2.237-4.246a196.23 196.23 0 0 1 2.384-4.245c.809-1.41 1.631-2.82 2.454-4.203.05-.085.085-.148.127-.226.928-1.833.204-4.083-1.618-5.014a3.71 3.71 0 0 0-5 1.63 264.712 264.712 0 0 0-2.23 4.477 223.104 223.104 0 0 0-2.151 4.52 139.577 139.577 0 0 0-2.054 4.634c-.33.79-.654 1.6-.963 2.461-.155.437-.303.882-.45 1.39-.07.26-.14.521-.211.867a6.728 6.728 0 0 0-.092.606c-.02.219-.049.564.007 1.051l.036.261c.084.642.421 1.241.984 1.65l.9.656.886.585c.591.367 1.175.727 1.759 1.058 1.167.67 2.327 1.29 3.495 1.89 1.167.6 2.342 1.17 3.516 1.728 1.182.557 2.349 1.1 3.559 1.636a1.927 1.927 0 0 0 2.398-.733 1.955 1.955 0 0 0-.62-2.687z" fill="#FCAD95"/><path d="M24.543 43.194c-1.808-1.586-6.063-.014-8.777 5.162-1.702 3.252-4.037 7.892-4.037 7.892-.612 1.685 5.936 6.953 8.946 4.668 0 0 2.187-5.02 4.022-8.66 1.203-2.39 3.123-6.191-.154-9.062z" fill="#DD6441"/><path d="M90.466 54.04c-11.294 0-20.964-6.41-24.65-16.325-4.936-13.322 2.73-28.512 17.09-33.871a29.508 29.508 0 0 1 10.36-1.89c11.293 0 20.97 6.41 24.649 16.325 4.936 13.322-2.729 28.512-17.09 33.872a29.506 29.506 0 0 1-10.359 1.89zm2.8-48.744a26.2 26.2 0 0 0-9.2 1.679C71.43 11.693 64.642 24.958 68.94 36.558c3.193 8.597 11.64 14.154 21.527 14.154a26.2 26.2 0 0 0 9.199-1.678c12.644-4.718 19.431-17.983 15.127-29.584-3.186-8.604-11.639-14.154-21.527-14.154z" fill="#2B6D87"/><path opacity=".3" d="M82.758 3.449C69.235 8.49 62.02 22.694 66.653 35.176 71.281 47.651 86 53.674 99.524 48.632c13.524-5.043 20.739-19.246 16.105-31.728C110.994 4.43 96.282-1.6 82.759 3.45z" fill="#BECAD3"/><path d="M65.086 35.754C70.03 49.07 85.734 55.55 100.094 50.19c14.361-5.352 22.026-20.55 17.09-33.871C112.247 2.997 96.536-3.477 82.175 1.883c-14.36 5.353-22.026 20.55-17.09 33.871zm48.975-18.272c4.304 11.594-2.482 24.866-15.127 29.584s-26.429-.882-30.726-12.475c-4.304-11.6 2.483-24.866 15.127-29.584C95.98.29 109.764 5.89 114.061 17.482z" fill="#37A0AB"/><path d="M89.348 17.891a471.132 471.132 0 0 1-1.835-8.244 32.1 32.1 0 0 0-6.71 2.194 3460.61 3460.61 0 0 0 1.675 8.272 32.233 32.233 0 0 1 6.87-2.222zM106.95 16.41c-.429-2.122-.858-4.238-1.28-6.34C101.69 9.035 97.337 8.647 92.843 9c.429 2.101.85 4.217 1.28 6.34 4.494-.353 8.84.035 12.827 1.072z" fill="#fff"/><path d="M8.726 75.401c-2.067 1.093-4.473.6-5.366-1.107-.9-1.706.057-3.97 2.124-5.063l59.56-31.474c2.067-1.093 2.89-.134 3.783 1.566.893 1.7 1.52 3.505-.548 4.598L8.726 75.4z" fill="#37A0AB"/><path d="M8.15 77.58c-2.54 1.34-5.64.438-6.928-2.01l-.12-.218c-1.286-2.461-.273-5.536 2.265-6.876l34.109-18.025c2.538-1.34 5.64-.437 6.927 2.01l.12.226c1.286 2.447.274 5.528-2.265 6.861L8.15 77.581z" fill="#2B6D87"/><path d="M14.022 145.951c.394.225 1.652-1.319.126-2.215-.351-.211-.928-2.073-1.11-2.954-.148-.692-3.39-3.273-4.234-1.806-.535.924-2.005 2.948-1.414 3.272 1.463.826 4.761 2.666 6.632 3.703z" fill="#4D909E"/><path d="M34.41 90.373s-4.29 20.98-6.934 27.8c-1.266 3.265-7.722-.635-7.61-2.955.535-11.093 1.07-21.29.865-29.09.598-.593 13.679 4.245 13.679 4.245z" fill="#213C53"/><path d="M19.978 112.517c1.147-4.485 8.82.895 7.504 5.656-1.624 5.846-9.34 16.741-13.052 23.025-.394.67-6.787-1.686-5.887-3.618 2.532-5.388 9.037-15.691 11.435-25.063z" fill="#213C53"/><path d="M20.45 88.222c1.533 2.151 10.078 6.065 20.43 1.545L40.05 78.2l-19.664.31s-.253 6.051.064 9.712z" fill="#214F64"/><path d="M32.567 41.79c5.661.452 11.435 3.322 11.146 6.961-.14 1.806-1.364 5.05-2.074 14.366-.851 11.071 1.118 15.444-1.132 16.741-4.522 2.596-20.958 2.363-21.577-.924-.654-3.49-.197-31.762.07-34.139.387-3.293 7.905-3.455 13.567-3.004z" fill="#F88950"/><path d="M59.157 46.27c-1.027 1.797-4.22 11.156-5.085 10.923-1.99-.67-3.368-2.003-4.909-3.385-1.589-1.432-3.572-4.507-5.717-5.254-4.487-1.573-6.013 3.963-3.312 6.7 3.621 3.674 9.22 10 14.747 8.18 5.218-1.714 6.337-13.886 6.87-16.728.48-2.468-2.186-1.467-2.594-.437z" fill="#FCAD95"/><path d="M42.096 44.88c3.024 2.073 7.195 6.284 12.033 10.67 1.182 2.27-1.856 8.667-5.338 8.23-4.03-2.2-10.338-7.772-10.338-7.772-8.214-6.347-1.385-14.576 3.643-11.128z" fill="#F88950"/><path d="m27.947 41.84 4.95.204.043-6.466-4.6-.219-.393 6.481z" fill="#FFA58F"/><path d="M35.886 30.69s.12 3.11.022 4.557c-.155 2.228-.753 4.386-2.448 4.407-2.11.028-3.143-2.292-3.03-4.506l-.008-4.436 5.464-.021z" fill="#FFAE99"/><path d="M27.18 36.206c-.253-.804-.33-2.892-.69-3.837-.358-.945-2.334-5.26 2.547-6.107.844-.148 7.58-1.48 7.904 2.13.289 3.195-.485 2.856-1.434 3.209-.598.225-.5 1.03-2.237 1.142-.907.064-1.638-.26-1.94.79-.366 1.255-.24 2.743-.64 3.441-.45.776-2.772 1.622-3.51-.768z" fill="#213C53"/><path d="M31.906 34.097c.302.656.127 1.39-.394 1.629-.52.24-1.188-.099-1.49-.762-.31-.663-.127-1.389.393-1.629.527-.24 1.196.099 1.49.762z" fill="#FFAE99"/><path d="M24.76 90.02c6.161 6.263 7.997 17.151 9.755 24.471.823 3.449 8.91 3.548 8.924-1.022.035-11.241-1.835-20.592-2.841-27.7-.007 0-18.72 1.325-15.837 4.251z" fill="#214F64"/><path d="M43.411 113.201c-.316-6.58-9.874-4.196-8.995.663 1.083 6.008-1.188 20.549-1.526 27.855-.035.811 6.154 2.088 6.456 0 .605-4.16 4.311-23.405 4.065-28.518z" fill="#214F64"/><path d="M34.578 42.052a19.374 19.374 0 0 0-2.011-.261c-1.927-.155-4.058-.233-6.062-.148.52.712 1.66 1.756 3.931 1.756 2.187 0 3.481-.776 4.142-1.347z" fill="#FFA58F"/><path d="M30.429 43.68c-2.3 0-3.523-1.015-4.142-1.868a.275.275 0 0 1 .063-.388.273.273 0 0 1 .387.064c.541.747 1.624 1.643 3.692 1.643 2.053 0 3.291-.698 3.973-1.277a.284.284 0 0 1 .394.029.286.286 0 0 1-.028.395c-.76.634-2.117 1.396-4.34 1.403z" fill="#DD6441"/><path d="M58.447 43.356c.098-1.198.506-1.868.556-1.882.478-.156.21 1.84.717 1.784.767-.085 1.118-3.71 1.575-3.759.218-.021.162 2.25.162 2.25s.682-2.384 1.055-2.328c.767.12.274 2.828.274 2.828s.654-1.77.739-1.297c.295 1.6-.69 5.585-2.42 5.712-2.552.183-2.756-2.109-2.658-3.308z" fill="#FCAD95"/></svg>
